X:9
M:6/8
L:1/8
K:G
| gdB BGA | BAG EGD | EGG GED | EAA GED | 
gdB BGA | BAG EGD | EGG GED | EAA A3 :| 
| Bde ged | aba ged | BAG ABd | edA GED | 

